icon-themes/breeze_svg/cmd/sc_charfontname.svg

<svg viewBox="0 0 16 16" xmlns="http://www.w3.org/2000/svg">/&gt;<path d="m7.3828125 2-4.3828125 11h1.3574219l1.1894531-3h4.927734l1.152344 3h1.373047l-4.2519531-11zm.6796875 1.328125c.11316.37608.711475 2.0819644 1.796875 5.1152344l.224609.5566406h-4.1425778z" fill="#4d4d4d"/></svg>

<svg xmlns="http://www.w3.org/2000/svg" viewBox="0 0 16 16">
     />
 <path 
     style="fill:#4d4d4d" 
     d="M 7.3828125 2 L 3 13 L 4.3574219 13 L 5.546875 10 L 10.474609 10 L 11.626953 13 L 13 13 L 8.7480469 2 L 7.3828125 2 z M 8.0625 3.328125 C 8.17566 3.704205 8.773975 5.4100894 9.859375 8.4433594 L 10.083984 9 L 5.9414062 9 L 8.0625 3.328125 z "
     />
 </svg>
